X:1
T:We Are Nearing
T:John Robson Sweney
T:We Are Nearing
T:Public Domain
T:Public Domain
T:Public Domain
C:John Robson Sweney
Z:Public Domain
%%score ( 1 2 ) ( 3 4 )
L:1/8
M:4/4
K:G
V:1 treble 
V:2 treble 
V:3 bass 
V:4 bass 
V:1
 [DB]3 [DB] [^C^A][DB][E^c][Ec] | [DB]4 [B,G]4 | [CA]3 [B,^G] [CA][CD][B,=G][CA] | [DB]6 z2 | %4
w: 1.~We are drift- ing towards the|wa- ters|Of a calm and tran- quil|sea,|
w: 2.~We are drift- ing from the|sor- rows|That for us will soon be|o’er;|
w: 3.~We are drift- ing from the|sha- dows|In- to pure and per- fect|day;|
w: 4.~Oh, the morn- ing and the|meet- ing,|When our hap- py souls shall|rest,|
 [DB]3 [DB] [=Fd][Fd][Ec][Ec] | [DB]4 [B,G]4 | [CA]3 [CD] [CA][Ec][DB][CA] | [B,G]6 || %8
w: And we soon shall an- chor|safe- ly|In that port where we should|be.|
w: We are drift- ing from the|tri- als|That will vex the heart no|more.|
w: ’Tis the Sav- ior guides our|ves- sel,|And His pre- sence cheers our|way.|
w: By the fount of life e-|ter- nal,|With the ran- somed ev- er|blest.|
"^Refrain" [B,G][DF] | [CE]4 [EG]2 [DF][CE] | [B,D]4 [DG]4 | [FA]2 [FA][FA] [Fd]2 [FA]2 | %12
w: ||||
w: We are|near- ing, we are|near- ing,|Near- ing the gold- en|
w: ||||
w: ||||
 [GB]6 [B,G][DF] | [CE]4 [EG]2 [Ec][Ec] | [DB]4 [Gd]4 | [Fd]2 [Fd][Ac] [GB]2 [FA]2 | %16
w: ||||
w: strand; We are|near- ing, we are|near- ing,|Near- ing the soul’s bright|
w: ||||
w: ||||
 (z2 [CE]2 [B,D]2) |] %17
w: |
w: |
w: |
w: |
V:2
 x8 | x8 | x8 | x8 | x8 | x8 | x8 | x6 || x2 | x8 | x8 | x8 | x8 | x8 | x8 | x8 | [DG]6 |] %17
w: |||||||||||||||||
w: ||||||||||||||||land.|
V:3
 G,,2 G,2 G,,2 G,2 | (G,,2 B,,D,) G,4 | [D,F,]3 [^D,E,] [D,F,] z [^D,,D,] z | (G,,D,B,,D, G,,4) | %4
w: ~ ~ ~ ~|~ * * ~|~ ~ ~ ~|~ * * * *|
 G,,2 G,2 B,,2 G,2 | (G,,2 B,,D,) G,4 | [D,F,] z [D,F,] z [D,F,] z [D,,D,] z | (G,E,D,B,, G,,2) || %8
w: ~ ~ ~ ~|ing, * * near-|are near- ing, near-|ing, * * * *|
 z2 | [C,G,][C,G,][C,G,][C,G,] [C,C][C,G,] z2 | [G,,G,][G,,G,][G,,G,][G,,G,] [G,B,] [G,B,]3 | %11
w: |~ ~ ~ ~ ~ ~|We are near- ing, near- ing,|
 [D,B,]2 [D,D][D,D] [D,A,]2 [D,D]2 | (z2 B,D G,2) z2 | [C,G,][C,G,][C,G,][C,G,] [C,C][C,C] z2 | %14
w: we are near- ing, near-|||
 G,G,G,G, [G,B,] [G,B,]3 | [D,A,]2 [D,A,][D,D] [D,D]2 [D,C]2 | [G,,G,B,]6 |] %17
w: |||
V:4
 G,,2 G,2 G,,2 G,2 | G,,2 G,4 x2 | x8 | x8 | G,,2 G,2 B,,2 G,2 | G,,2 G,4 x2 | x8 | x6 || x2 | x8 | %10
w: ~ ~ ~ ~|~ ~|||~ We are near-|ing, we|||||
 x8 | x8 | [G,D]6 x2 | x8 | G,G,G,G, x4 | x8 | x6 |] %17
w: ||ing,|||||

